X:1059
T:Polska från Ön i Dm av P-G Eriksson
C:P-G Eriksson
R:Polska
Z:Anton Teljebäck, 090125
O:Umeå, Västerbotten
M:3/4
L:1/16
K:Dm
A3^c c2d2 d4 | d3e f2d2 a4 | a2ba g2ag f2gf | e3d ^cdec A4 |A3^c c2d2 d4 | d3e f2d2 a4 | a2ba g2ag f2gf | e2d^c d8 :|
|: a4 d'4 a4- | a2g2 g2fg a4 |  a2ba g2ag f2gf | e3d ^cdec A4 |a4 d'4 a4- | a2g2 g2fg a4 | a2ba g2ag f2gf | e2d^c d8 :|
(:musicend:)


(:music:)
